U/uturndata.com logo.svg

<?xml version="1.0" ?>
<svg xmlns="http://www.w3.org/2000/svg" role="img" viewBox="-113.30 -108.30 5631.60 2181.60">
	<style>svg {shape-rendering:geometricPrecision;text-rendering:geometricPrecision;image-rendering:optimizeQuality;fill-rule:evenodd;clip-rule:evenodd}</style>
	<path fill="#8cc1de" d="M1066.5-.5h14c143.86 4.83683 236.36 76.1702 277.5 214 6.35 24.746 11.18 49.746 14.5 75 129.5 34.085 195.83 118.252 199 252.5-.95 84.221-33.95 152.555-99 205-26.24 19.445-55.57 31.778-88 37-30.97 1.816-61.97 2.983-93 3.5v-93c22.01.008 44.01-.492 66-1.5 20.61.017 39.28-5.983 56-18 36.15-27.102 57.32-63.269 63.5-108.5 9.54-109.769-39.96-173.269-148.5-190.5-16.38-.629-32.71-1.463-49-2.5-.33-2.667-.67-5.333-1-8 7.28-63.193-3.22-123.193-31.5-180-30.08-52.156-75.24-81.989-135.5-89.5-40.72-5.9689-80.38-1.9689-119 12-44.188 19.188-77.022 50.354-98.5 93.5-9.304 18.577-16.637 37.91-22 58-3.728 21.372-7.562 42.705-11.5 64a2160.5126 2160.5126 0 0 0-58-22.5c-34.243-9.847-67.243-6.847-99 9-27.783 17.018-43.95 41.851-48.5 74.5-2.373 15.25-3.039 30.584-2 46 1.986 17.378 4.153 34.711 6.5 52-1 .333-2 .667-3 1-26.89-3.658-53.89-5.158-81-4.5-27.217 1.961-52.217 10.294-75 25-23.218 19.268-35.718 44.102-37.5 74.5-1.686 41.464 15.147 72.964 50.5 94.5 18.245 10.748 37.911 17.082 59 19 122.33 1.305 244.663 2.138 367 2.5v93c-120.996-1.002-241.996-1.835-363-2.5-59.506-2.85-110.673-24.683-153.5-65.5-47.716-52.524-63.382-113.524-47-183 17.487-66.817 58.654-111.984 123.5-135.5 20.158-6.865 40.825-11.365 62-13.5 9.114-92.593 58.114-152.093 147-178.5 27.738-6.48 55.738-7.98 84-4.5 23.827-71.642 67.827-127.1425 132-166.5 44.386-24.095 91.72-36.59497 142-37.5z" opacity=".99"/>
	<path fill="#176dab" d="M651.5 1967.5h-73c-123.838-6.22-237.171-43.72-340-112.5-91.391-65.89-156.8913-151.72-196.5-257.5-25.9232-68.45-40.08989-139.12-42.5-212v-959c1.45982-13.3 8.79316-21.466 22-24.5 50-.667 100-.667 150 0 11.279 2.945 18.112 10.112 20.5 21.5.333 313.333.667 626.67 1 940-1.603 123.22 41.231 227.72 128.5 313.5 67.738 59.69 146.738 95.35 237 107 148.203 15.74 270.37-32.76 366.5-145.5 50.212-60.91 79.21-130.91 87-210 2-18.62 3.33-37.29 4-56 .5-246 .67-492 .5-738-20.379.44-40.712-.06-61-1.5-13.682-6.364-18.515-16.864-14.5-31.5 51.274-78.271 102.94-156.271 155-234 13.27-11.175 25.94-10.509 38 2l153 231c5.15 18.144-1.35 29.311-19.5 33.5-18.33.5-36.66.667-55 .5-.47 261.345-1.97 522.68-4.5 784-12.71 168.25-81.88 307.75-207.5 418.5-101.855 81.24-218.188 124.74-349 130.5z" opacity=".994"/>
	<path fill="#176dab" d="M1792.5 490.5c48.67-.167 97.33 0 146 .5 11.27 2.937 18.1 10.103 20.5 21.5.33 90.667.67 181.333 1 272 2.94 9.943 9.44 16.109 19.5 18.5 99.33.333 198.67.667 298 1 11.83 2.5 19 9.667 21.5 21.5.67 36.667.67 73.333 0 110-1.86 10.192-7.69 17.025-17.5 20.5-101.3 1.32-202.64 1.987-304 2-8.9 3.235-14.73 9.402-17.5 18.5-.4 206.67-.74 413.34-1 620-1.51 41.46 8.49 79.79 30 115 21.07 28.14 48.57 47.31 82.5 57.5 26.46 7.52 53.46 11.52 81 12 43.18 1.53 86.18-.64 129-6.5 13.47.97 21.97 7.97 25.5 21 .67 40.33.67 80.67 0 121-2.23 9.24-7.73 15.74-16.5 19.5-46.51 9.4-93.51 13.9-141 13.5-39.22.11-78.22-2.72-117-8.5-130.15-23.15-211.98-98.65-245.5-226.5-7.62-34.92-11.95-70.26-13-106-.97-211.7-1.97-423.37-3-635-3.33-7.993-9.16-13.159-17.5-15.5-62.33-.333-124.67-.667-187-1-11.1-1.769-18.6-7.935-22.5-18.5-.67-38.667-.67-77.333 0-116 2.4-8.737 7.9-14.571 16.5-17.5 63.96-1.319 127.96-1.986 192-2 10.5-2.5 17-9 19.5-19.5.33-90.667.67-181.333 1-272 2.91-10.411 9.41-17.411 19.5-21z" opacity=".994"/>
	<path fill="#176dab" d="M4092.5 772.5c51.96-3.171 102.96 2.329 153 16.5 12.47 1.811 20.64 8.644 24.5 20.5.67 45 .67 90 0 135-3.86 12.193-12.2 18.86-25 20-72.59-19.542-145.75-22.042-219.5-7.5-93.44 21.797-161.94 75.3-205.5 160.5-14.48 32.25-24.15 65.92-29 101-6.21 49.13-9.04 98.46-8.5 148 3.01 182 5.51 364 7.5 546-3.5 11.17-11 17.67-22.5 19.5-47.33.67-94.67.67-142 0-13.83-1.83-21.67-9.67-23.5-23.5-2.57-357.51-5.41-715.01-8.5-1072.5-1.14-10.708 2.19-19.708 10-27 3.57-2.637 7.57-4.303 12-5 43.05-.978 86.05-.645 129 1 8.85 3.197 14.35 9.363 16.5 18.5.05 25.374.71 50.708 2 76 8.57 17.189 21.4 21.356 38.5 12.5 78.24-85.119 175.24-131.619 291-139.5z" opacity=".995"/>
	<path fill="#176dab" d="M5410.5 1323.5v585c-2.16 13.65-10.16 21.49-24 23.5-47.33.67-94.67.67-142 0-11.5-1.83-19-8.33-22.5-19.5-.04-197.01-.71-394.01-2-591-1.29-56.33-9.29-111.66-24-166-35.2-114.53-112.03-181.359-230.5-200.5-74.62-11.73-144.96.603-211 37-57.59 36.44-97.25 87.1-119 152-16.02 52.97-24.86 107.14-26.5 162.5-1.09 30.99-1.75 61.99-2 93-.33 171.33-.67 342.67-1 514-3.83 10.51-11.33 16.68-22.5 18.5-46.67.67-93.33.67-140 0-11.5-1.83-19-8.33-22.5-19.5-3.22-344.66-6.06-689.33-8.5-1034-.14-19.716.36-39.382 1.5-59 3.89-8.371 10.39-13.537 19.5-15.5 43.67-.667 87.33-.667 131 0 10.19 1.856 17.03 7.689 20.5 17.5.97 23.361 1.97 46.694 3 70 6.55 13.298 17.05 18.131 31.5 14.5l6-3c60.44-64.228 134.44-103.895 222-119 69.63-11.946 139.3-12.279 209-1 108.26 20.055 195.1 73.888 260.5 161.5 38.61 57.78 63.94 121.12 76 190 10.97 62.67 16.8 125.67 17.5 189z" opacity=".995"/>
	<path fill="#176dab" d="M2464.5 803.5c48.67-.167 97.33 0 146 .5 10.62 1.951 17.45 8.118 20.5 18.5.33 178 .67 356 1 534-.67 62.93 4.99 125.26 17 187 35.75 156.89 134.25 236.89 295.5 240 93.75 1.7 169.92-33.64 228.5-106 35.81-50.32 57.81-106.32 66-168 4.27-30.85 6.6-61.85 7-93 .33-197.67.67-395.33 1-593 3.25-10.247 10.08-16.747 20.5-19.5 48.67-.667 97.33-.667 146 0 12.72 2.721 19.89 10.555 21.5 23.5 2.62 356.5 5.45 713 8.5 1069.5 1.51 11.16-1.49 20.83-9 29-4.44 3.37-9.44 5.37-15 6-40.33.67-80.67.67-121 0-11.5-1.83-19-8.33-22.5-19.5-.33-20-.67-40-1-60-5.29-18.39-17.12-24.89-35.5-19.5-9.6 7.6-18.6 15.93-27 25-70.34 59.14-151.68 92.48-244 100-72.89 7.96-144.56 1.96-215-18-131.4-45.07-220.9-132.9-268.5-263.5-18.78-55.55-30.78-112.55-36-171-2.49-25.95-4.15-51.95-5-78-.67-201.67-.67-403.33 0-605 3.22-10.34 10.05-16.673 20.5-19z" opacity=".996"/>
</svg>

<?xml version="1.0" ?>
<svg xmlns="http://www.w3.org/2000/svg" viewBox="0 0 5411 1968" shape-rendering="geometricPrecision" text-rendering="geometricPrecision" image-rendering="optimizeQuality" fill-rule="evenodd" clip-rule="evenodd">
	<g>
		<path fill="#8cc1de" d="M 1066.5,-0.5 C 1071.17,-0.5 1075.83,-0.5 1080.5,-0.5C 1224.36,4.33683 1316.86,75.6702 1358,213.5C 1364.35,238.246 1369.18,263.246 1372.5,288.5C 1502,322.585 1568.33,406.752 1571.5,541C 1570.55,625.221 1537.55,693.555 1472.5,746C 1446.26,765.445 1416.93,777.778 1384.5,783C 1353.53,784.816 1322.53,785.983 1291.5,786.5C 1291.5,755.5 1291.5,724.5 1291.5,693.5C 1313.51,693.508 1335.51,693.008 1357.5,692C 1378.11,692.017 1396.78,686.017 1413.5,674C 1449.65,646.898 1470.82,610.731 1477,565.5C 1486.54,455.731 1437.04,392.231 1328.5,375C 1312.12,374.371 1295.79,373.537 1279.5,372.5C 1279.17,369.833 1278.83,367.167 1278.5,364.5C 1285.78,301.307 1275.28,241.307 1247,184.5C 1216.92,132.344 1171.76,102.511 1111.5,95C 1070.78,89.0311 1031.12,93.0311 992.5,107C 948.312,126.188 915.478,157.354 894,200.5C 884.696,219.077 877.363,238.41 872,258.5C 868.272,279.872 864.438,301.205 860.5,322.5C 841.278,314.723 821.945,307.223 802.5,300C 768.257,290.153 735.257,293.153 703.5,309C 675.717,326.018 659.55,350.851 655,383.5C 652.627,398.75 651.961,414.084 653,429.5C 654.986,446.878 657.153,464.211 659.5,481.5C 658.5,481.833 657.5,482.167 656.5,482.5C 629.61,478.842 602.61,477.342 575.5,478C 548.283,479.961 523.283,488.294 500.5,503C 477.282,522.268 464.782,547.102 463,577.5C 461.314,618.964 478.147,650.464 513.5,672C 531.745,682.748 551.411,689.082 572.5,691C 694.83,692.305 817.163,693.138 939.5,693.5C 939.5,724.5 939.5,755.5 939.5,786.5C 818.504,785.498 697.504,784.665 576.5,784C 516.994,781.15 465.827,759.317 423,718.5C 375.284,665.976 359.618,604.976 376,535.5C 393.487,468.683 434.654,423.516 499.5,400C 519.658,393.135 540.325,388.635 561.5,386.5C 570.614,293.907 619.614,234.407 708.5,208C 736.238,201.52 764.238,200.02 792.5,203.5C 816.327,131.858 860.327,76.3575 924.5,37C 968.886,12.905 1016.22,0.405026 1066.5,-0.5 Z" opacity="0.99"/>
	</g>
	<g>
		<path fill="#176dab" d="M 651.5,1967.5 C 627.167,1967.5 602.833,1967.5 578.5,1967.5C 454.662,1961.28 341.329,1923.78 238.5,1855C 147.109,1789.11 81.6087,1703.28 42,1597.5C 16.0768,1529.05 1.91011,1458.38 -0.5,1385.5C -0.5,1065.83 -0.5,746.167 -0.5,426.5C 0.959825,413.2 8.29316,405.034 21.5,402C 71.5,401.333 121.5,401.333 171.5,402C 182.779,404.945 189.612,412.112 192,423.5C 192.333,736.833 192.667,1050.17 193,1363.5C 191.397,1486.72 234.231,1591.22 321.5,1677C 389.238,1736.69 468.238,1772.35 558.5,1784C 706.703,1799.74 828.87,1751.24 925,1638.5C 975.212,1577.59 1004.21,1507.59 1012,1428.5C 1014,1409.88 1015.33,1391.21 1016,1372.5C 1016.5,1126.5 1016.67,880.5 1016.5,634.5C 996.121,634.94 975.788,634.44 955.5,633C 941.818,626.636 936.985,616.136 941,601.5C 992.274,523.229 1043.94,445.229 1096,367.5C 1109.27,356.325 1121.94,356.991 1134,369.5C 1185,446.5 1236,523.5 1287,600.5C 1292.15,618.644 1285.65,629.811 1267.5,634C 1249.17,634.5 1230.84,634.667 1212.5,634.5C 1212.03,895.845 1210.53,1157.18 1208,1418.5C 1195.29,1586.75 1126.12,1726.25 1000.5,1837C 898.645,1918.24 782.312,1961.74 651.5,1967.5 Z" opacity="0.994"/>
	</g>
	<g>
		<path fill="#176dab" d="M 1792.5,490.5 C 1841.17,490.333 1889.83,490.5 1938.5,491C 1949.77,493.937 1956.6,501.103 1959,512.5C 1959.33,603.167 1959.67,693.833 1960,784.5C 1962.94,794.443 1969.44,800.609 1979.5,803C 2078.83,803.333 2178.17,803.667 2277.5,804C 2289.33,806.5 2296.5,813.667 2299,825.5C 2299.67,862.167 2299.67,898.833 2299,935.5C 2297.14,945.692 2291.31,952.525 2281.5,956C 2180.2,957.32 2078.86,957.987 1977.5,958C 1968.6,961.235 1962.77,967.402 1960,976.5C 1959.6,1183.17 1959.26,1389.84 1959,1596.5C 1957.49,1637.96 1967.49,1676.29 1989,1711.5C 2010.07,1739.64 2037.57,1758.81 2071.5,1769C 2097.96,1776.52 2124.96,1780.52 2152.5,1781C 2195.68,1782.53 2238.68,1780.36 2281.5,1774.5C 2294.97,1775.47 2303.47,1782.47 2307,1795.5C 2307.67,1835.83 2307.67,1876.17 2307,1916.5C 2304.77,1925.74 2299.27,1932.24 2290.5,1936C 2243.99,1945.4 2196.99,1949.9 2149.5,1949.5C 2110.28,1949.61 2071.28,1946.78 2032.5,1941C 1902.35,1917.85 1820.52,1842.35 1787,1714.5C 1779.38,1679.58 1775.05,1644.24 1774,1608.5C 1773.03,1396.8 1772.03,1185.13 1771,973.5C 1767.67,965.507 1761.84,960.341 1753.5,958C 1691.17,957.667 1628.83,957.333 1566.5,957C 1555.4,955.231 1547.9,949.065 1544,938.5C 1543.33,899.833 1543.33,861.167 1544,822.5C 1546.4,813.763 1551.9,807.929 1560.5,805C 1624.46,803.681 1688.46,803.014 1752.5,803C 1763,800.5 1769.5,794 1772,783.5C 1772.33,692.833 1772.67,602.167 1773,511.5C 1775.91,501.089 1782.41,494.089 1792.5,490.5 Z" opacity="0.994"/>
	</g>
	<g>
		<path fill="#176dab" d="M 4092.5,772.5 C 4144.46,769.329 4195.46,774.829 4245.5,789C 4257.97,790.811 4266.14,797.644 4270,809.5C 4270.67,854.5 4270.67,899.5 4270,944.5C 4266.14,956.693 4257.8,963.36 4245,964.5C 4172.41,944.958 4099.25,942.458 4025.5,957C 3932.06,978.797 3863.56,1032.3 3820,1117.5C 3805.52,1149.75 3795.85,1183.42 3791,1218.5C 3784.79,1267.63 3781.96,1316.96 3782.5,1366.5C 3785.51,1548.5 3788.01,1730.5 3790,1912.5C 3786.5,1923.67 3779,1930.17 3767.5,1932C 3720.17,1932.67 3672.83,1932.67 3625.5,1932C 3611.67,1930.17 3603.83,1922.33 3602,1908.5C 3599.43,1550.99 3596.59,1193.49 3593.5,836C 3592.36,825.292 3595.69,816.292 3603.5,809C 3607.07,806.363 3611.07,804.697 3615.5,804C 3658.55,803.022 3701.55,803.355 3744.5,805C 3753.35,808.197 3758.85,814.363 3761,823.5C 3761.05,848.874 3761.71,874.208 3763,899.5C 3771.57,916.689 3784.4,920.856 3801.5,912C 3879.74,826.881 3976.74,780.381 4092.5,772.5 Z" opacity="0.995"/>
	</g>
	<g>
		<path fill="#176dab" d="M 5410.5,1323.5 C 5410.5,1518.5 5410.5,1713.5 5410.5,1908.5C 5408.34,1922.15 5400.34,1929.99 5386.5,1932C 5339.17,1932.67 5291.83,1932.67 5244.5,1932C 5233,1930.17 5225.5,1923.67 5222,1912.5C 5221.96,1715.49 5221.29,1518.49 5220,1321.5C 5218.71,1265.17 5210.71,1209.84 5196,1155.5C 5160.8,1040.97 5083.97,974.141 4965.5,955C 4890.88,943.27 4820.54,955.603 4754.5,992C 4696.91,1028.44 4657.25,1079.1 4635.5,1144C 4619.48,1196.97 4610.64,1251.14 4609,1306.5C 4607.91,1337.49 4607.25,1368.49 4607,1399.5C 4606.67,1570.83 4606.33,1742.17 4606,1913.5C 4602.17,1924.01 4594.67,1930.18 4583.5,1932C 4536.83,1932.67 4490.17,1932.67 4443.5,1932C 4432,1930.17 4424.5,1923.67 4421,1912.5C 4417.78,1567.84 4414.94,1223.17 4412.5,878.5C 4412.36,858.784 4412.86,839.118 4414,819.5C 4417.89,811.129 4424.39,805.963 4433.5,804C 4477.17,803.333 4520.83,803.333 4564.5,804C 4574.69,805.856 4581.53,811.689 4585,821.5C 4585.97,844.861 4586.97,868.194 4588,891.5C 4594.55,904.798 4605.05,909.631 4619.5,906C 4621.5,905 4623.5,904 4625.5,903C 4685.94,838.772 4759.94,799.105 4847.5,784C 4917.13,772.054 4986.8,771.721 5056.5,783C 5164.76,803.055 5251.6,856.888 5317,944.5C 5355.61,1002.28 5380.94,1065.62 5393,1134.5C 5403.97,1197.17 5409.8,1260.17 5410.5,1323.5 Z" opacity="0.995"/>
	</g>
	<g>
		<path fill="#176dab" d="M 2464.5,803.5 C 2513.17,803.333 2561.83,803.5 2610.5,804C 2621.12,805.951 2627.95,812.118 2631,822.5C 2631.33,1000.5 2631.67,1178.5 2632,1356.5C 2631.33,1419.43 2636.99,1481.76 2649,1543.5C 2684.75,1700.39 2783.25,1780.39 2944.5,1783.5C 3038.25,1785.2 3114.42,1749.86 3173,1677.5C 3208.81,1627.18 3230.81,1571.18 3239,1509.5C 3243.27,1478.65 3245.6,1447.65 3246,1416.5C 3246.33,1218.83 3246.67,1021.17 3247,823.5C 3250.25,813.253 3257.08,806.753 3267.5,804C 3316.17,803.333 3364.83,803.333 3413.5,804C 3426.22,806.721 3433.39,814.555 3435,827.5C 3437.62,1184 3440.45,1540.5 3443.5,1897C 3445.01,1908.16 3442.01,1917.83 3434.5,1926C 3430.06,1929.37 3425.06,1931.37 3419.5,1932C 3379.17,1932.67 3338.83,1932.67 3298.5,1932C 3287,1930.17 3279.5,1923.67 3276,1912.5C 3275.67,1892.5 3275.33,1872.5 3275,1852.5C 3269.71,1834.11 3257.88,1827.61 3239.5,1833C 3229.9,1840.6 3220.9,1848.93 3212.5,1858C 3142.16,1917.14 3060.82,1950.48 2968.5,1958C 2895.61,1965.96 2823.94,1959.96 2753.5,1940C 2622.1,1894.93 2532.6,1807.1 2485,1676.5C 2466.22,1620.95 2454.22,1563.95 2449,1505.5C 2446.51,1479.55 2444.85,1453.55 2444,1427.5C 2443.33,1225.83 2443.33,1024.17 2444,822.5C 2447.22,812.16 2454.05,805.827 2464.5,803.5 Z" opacity="0.996"/>
	</g>
</svg>
